svg/fluentui-system-icons/ic_fluent_compass_northwest_16_regular.svg

<svg width="16" height="16" viewBox="0 0 16 16" fill="none" xmlns="http://www.w3.org/2000/svg">
<path d="M2 8C2 4.68629 4.68629 2 8 2C11.3137 2 14 4.68629 14 8C14 11.3137 11.3137 14 8 14C4.68629 14 2 11.3137 2 8ZM8 1C4.13401 1 1 4.13401 1 8C1 11.866 4.13401 15 8 15C11.866 15 15 11.866 15 8C15 4.13401 11.866 1 8 1ZM5.13063 6.47831C4.68182 5.61203 5.61226 4.68159 6.47854 5.13038L8.38717 6.11917C9.02715 6.45072 9.54916 6.97177 9.88189 7.61113L10.882 9.53291C11.3333 10.4 10.4005 11.3329 9.53337 10.8816L7.61152 9.88161C6.97209 9.54889 6.45099 9.02686 6.11941 8.38685L5.13063 6.47831ZM7.92717 7.00709L6.01854 6.01829L7.00732 7.92683C7.24417 8.38399 7.61638 8.75687 8.07311 8.99452L9.99496 9.99456L8.99483 8.07277C8.75716 7.61609 8.3843 7.24391 7.92717 7.00709Z" fill="#212121"/>
</svg>

<svg xmlns="http://www.w3.org/2000/svg" width="16" height="16"><path d="M2 8a6 6 0 1 1 12 0A6 6 0 0 1 2 8Zm6-7a7 7 0 1 0 0 14A7 7 0 0 0 8 1ZM5.13 6.478c-.448-.866.482-1.796 1.349-1.348l1.908.99a3.5 3.5 0 0 1 1.495 1.49l1 1.922c.451.867-.482 1.8-1.349 1.349l-1.921-1a3.5 3.5 0 0 1-1.493-1.495l-.988-1.909Zm2.797.53-1.908-.99.988 1.909a2.5 2.5 0 0 0 1.066 1.068l1.922 1-1-1.922a2.5 2.5 0 0 0-1.068-1.066Z"/></svg>
